!!!!SEGMENT: pl-wnifc--6670-n--001-002_gall-jan-karol--piesni-polskie-na-chor-meski-z-i-2-niebiosa-rose-spuszczajcie-z-gory.krn
!!!cenid: 19xx:170
!!!COM: Gall, Jan Karol
!!!COM-rismID: pe50042628
!!!CDT: 1856-1912
!!!CNT: Polish
!!!GTL: Pieśni polskie na chór męski (z. I)
!!!OTL: 2. Niebiosa rosę spuszczajcie z góry
!!!OMV: 002
!!!PDT:
!!!AGN:
!!!YEC: Copyright 2022 Narodowy Instytut Fryderyka Chopina (https://polishscores.org)
!!!YEM: License CC-BY-4.0 (https://creativecommons.org/licenses/by/4.0)
!!!SMS-siglum: PL-Wnifc
!!!SMS-shelfmark: 6670/n
!!!SMS-variant:
!!!SMS-altvar:
!!!SMS-shelfwork: 001-002 G
!!!NIFC-rismSourceID: 1001152877
!!!NIFC-rismChildID: 1001152883
!!!NIFC-islandoraID: nifc:213182
!!!URL-pdf-islandora: https://repozytorium.nifc.pl/islandora/object/nifc:213182/datastream/PDF/view
!!!URL-scan: https://polish.musicsources.pl/pl/lokalizacje/galeria/druki-muzyczne/16895/3 @EN{Scan on Polish Music Sources Website} @PL{Skany w portalu Dziedzictwo Muzyki Polskiej w otwartym dostępie}
!!!IIIF:
!!!ONB-nifc:
!!!AIN: 1 bass 1 tenor
!!!key: D
**kern	**kern	**text	**text
*part2	*part1	*part1	*part1
*staff2	*staff1	*staff1	*staff1
*ICvox	*ICvox	*	*
*Ibass	*Itenor	*	*
*I"Basy.	*I"Tenory.	*	*
*I'B	*I'T	*	*
*clefF4	*clefG2	*	*
*k[f#c#]	*k[f#c#]	*	*
*D:	*D:	*	*
*M4/4	*M4/4	*	*
*met(c)	*met(c)	*	*
*^	*^	*	*
*	*	*	*	*v:1	*v:2
4F#/	4D\	4dd/	4a\	Nie-	w Twem
=1	=1	=1	=1	=1	=1
(2F#/	(2D\	(2dd/	(2a\	-bio-	mie-
4E/)	4AA\)	4cc#/)	4a\)	.	.
4D/	4FF#\	4dd/	4a\	-sa	-ście
=2	=2	=2	=2	=2	=2
(4D/	(4GG\	2ee/	(4b\	ro-	pu-
4C#/)	4AA\)	.	8a\L)	.	.
.	.	.	8g\J	.	.
4D/	4D\	4dd/	4f#\	-sę	-sto
4D/	4D\	4dd/	4dd\	spu-	ach
=3	=3	=3	=3	=3	=3
(2D/	(2GG\	(2gg/	(2b\	-szczaj-	pu-
4D#X/)	8BB\L)	4ff#/)	4b\)	.	-sto
.	8AA\J	.	.	.	.
4E/	4GG\	4ee/	4b\	-cie	w Sy-
!!LO:LB:g=original
=4	=4	=4	=4	=4	=4
2F#/	2AA\	2dd/	2a\	z gó-	-o-
2E/	2AA\	2cc#/	2a\	-ry	-nie
=5	=5	=5	=5	=5	=5
2F#/	2D\	2dd/	2a\	Spra-	Je-
4E/	4D\	4cc#/	4g#X\	-wie-	-ro-
4E/	4D\	4b/	4g#\	-dli-	-zo-
=6	=6	=6	=6	=6	=6
2E/	2C#\	2ee/	2a\	-we-	-li-
4F#/	4D\	4dd/	4a\	-go	-ma
4F#/	4BB\	4dd/	4a\	wy-	w bo-
=7	=7	=7	=7	=7	=7
(2E/	(2E\	(2cc#/	(2a\	-lej-	-le-
4E#X/)	4E#\)	4b/)	4g#X\)	.	.
4F#/	4F#\	4a/	4a\	-cie	-ści
=8	=8	=8	=8	=8	=8
(4F#/	4D\	2b/	(4a\	chmu-	to-
8E/L	4En\	.	4g#X\)	.	.
8D/J)	.	.	.	.	.
4C#;/	4AA;\	4a;/	4a;\	-ry	-nie
8r	8ryy	8r	8ryy	.	.
8A/	8A\	8a/	8a\	O-	I
!!LO:LB:g=original
=9	=9	=9	=9	=9	=9
(2F#/	2.D\	(2dd/	2.a\	-wstrzy-	ru-
4G/)	.	4ee/)	.	.	.
4F#/	4D\	4dd/	4a\	-maj,	-nął
=10	=10	=10	=10	=10	=10
2E/	2AA\	2cc#/	2a\	wstrzy-	dom
2C#/	2AA\	2a/	2e\	-maj	Twój
=11	=11	=11	=11	=11	=11
(4D/	(4GG\	(4b/	(4g\	Two-	świę-
4E/)	4GG\)	4cc#/)	4a\)	-je	.
4D/	4FF#\	4dd/	4a\	za-	-to-
4D/	4GG\	4ee/	4b\	-gnie-	-ści
=12	=12	=12	=12	=12	=12
(4D/	2AA\	2ff#/	(4a\	-wa-	chwa-
4BB/)	.	.	4g#X\)	.	.
2C#/	2AA\	2ee/	(4a\	-nie	-ły
.	.	.	4gn\)	.	.
!!LO:LB:g=original
=13	=13	=13	=13	=13	=13
2C#/	2AA#X\	2ff#/	2f#\	I	Gdzie
!	!LO:N:vis=4.	!	!	!	!
4.BB/	4BB\	4dd/	4f#\	zbro-	Hym-
.	4AAn\	4cc#/	4f#\	-dni	-ny
8C#/	.	.	.	.	.
=14	=14	=14	=14	=14	=14
(4D/	(4GG\	2b/	(4g\	na-	oj-
4D#X/)	4FF#\)	.	4a\)	.	.
4E/	4EE\	4b/	4g\	-szych	-ców
4E/	4E\	4b/	4g\	za-	do
=15	=15	=15	=15	=15	=15
(4E/	(4AA\	(4cc#/	(4g\	-po-	Cię
4D/)	4BB\)	4dd/)	4f#\)	.	.
4BB/	4GG\	4ee/	4e\	-mnij	nie-
8E/L	4AA\	4cc#/	4a\	już	-gdyś
8G/J	.	.	.	.	.
=16	=16	=16	=16	=16	=16
(4G/	2D\	2dd/	2a\	Pa-	brzmia-
8F#/L)	.	.	.	.	.
8E/J	.	.	.	.	.
2F#/	2D\	2dd/	2a\	-nie!	-ły!
*v	*v	*	*	*	*
*	*v	*v	*	*
==	==	==	==
*-	*-	*-	*-
!!!system-decoration: [(s1,s2)]
!!!ENC: Andrzej Gręziak
!!!END: 2024-05-02
!!!EED: Andrzej Borzym
!!!EEV: 2025-03-06
